view-list.svg

<svg fill="currentColor" viewBox="0 0 24 24"><path d="M9 5v4h12V5M9 19h12v-4H9m0-1h12v-4H9M4 9h4V5H4m0 14h4v-4H4m0-1h4v-4H4z"/></svg>

<svg  viewBox="0 0 24 24" fill="currentColor"><path  d="M9,5V9H21V5M9,19H21V15H9M9,14H21V10H9M4,9H8V5H4M4,19H8V15H4M4,14H8V10H4V14Z"/></svg>
